icons/nvk_2.svg

<svg fill="none" height="128" viewBox="0 0 128 128" width="128" xmlns="http://www.w3.org/2000/svg"><rect fill="#eab308" height="128" rx="10" width="128"/><g clip-rule="evenodd" fill-rule="evenodd"><path d="m64.0312 88.4152c1.1045 0 2 .8954 2 2v17.4488c0 1.105-.8955 2-2 2-1.1046 0-2-.895-2-2v-17.4488c0-1.1046.8954-2 2-2z" fill="#000"/><path d="m65.2711 16.1606c.135 1.0963-.6443 2.0944-1.7406 2.2294-2.9715.3659-5.9466 1.1233-8.8587 2.3021-17.8811 7.2381-26.5089 27.6012-19.2708 45.4823s27.6012 26.5089 45.4823 19.2708c3.193-1.2926 6.0881-3.0018 8.6499-5.0385.8646-.6875 2.1227-.5438 2.8101.3208.6875.8646.5438 2.1227-.3208 2.8102-2.8587 2.2728-6.0862 4.1773-9.6384 5.6152-19.9288 8.067-42.6239-1.5488-50.6909-21.4777-8.067-19.9288 1.5489-42.6238 21.4777-50.6909 3.2395-1.3113 6.555-2.156 9.8707-2.5643 1.0963-.135 2.0945.6443 2.2295 1.7406z" fill="#000"/><path d="m50.9752 15.3624c.9854-.4991 2.1888-.1049 2.6879.8804l35.7503 70.5781c.4991.9854.1049 2.1888-.8804 2.6879-.9854.4992-2.1888.105-2.6879-.8804l-35.7503-70.5781c-.4991-.9853-.1049-2.1888.8804-2.6879z" fill="#000"/></g><path d="m97.1608 53.8614c0 16.3018-13.2153 29.5171-29.5171 29.5171-16.3019 0-29.5172-13.2153-29.5172-29.5171 0-16.3019 13.2153-29.5171 29.5172-29.5171 16.3018 0 29.5171 13.2152 29.5171 29.5171z" fill="#fff"/><path clip-rule="evenodd" d="m99.1608 53.8614c0 17.4064-14.1107 31.5171-31.5171 31.5171-17.4065 0-31.5172-14.1107-31.5172-31.5171s14.1107-31.5171 31.5172-31.5171c17.4064 0 31.5171 14.1107 31.5171 31.5171zm-31.5171 29.5171c16.3018 0 29.5171-13.2153 29.5171-29.5171 0-16.3019-13.2153-29.5171-29.5171-29.5171-16.3019 0-29.5172 13.2152-29.5172 29.5171 0 16.3018 13.2153 29.5171 29.5172 29.5171z" fill="#000" fill-rule="evenodd"/><path clip-rule="evenodd" d="m58.2849 35.943c.2893-.3279.758-.4298 1.1573-.2517l8.3088 3.7071c.0134.0059.0267.0122.0398.0188l4.3461 2.173c.4354.2177.6508.7172.5102 1.1832l-2.4287 8.0531c-.1274.4223-.5163.7113-.9574.7113h-4.4373l.3526 2.045 4.541 2.3287c.2744.1408.4686.4003.5261.7033.0576.303-.0279.6156-.2317.8472l-5.3751 6.1081v3.5853c0 .2911-.1269.5678-.3475.7578l-4.6018 3.9626c-.3507.302-.8628.3239-1.238.053l-4.5702-3.3007-5.2077-3.1754c-.2126-.1297-.3692-.334-.4391-.5729l-1.5339-5.241c-.069-.2355-.0489-.4882.0564-.7099l2.2364-4.7082-2.2544-5.3392c-.1157-.2741-.1033-.5856.0338-.8498l3.4513-6.647c.0212-.0407.045-.0798.0715-.1172l2.1731-3.0679c.1875-.2646.4917-.422.816-.422h3.3836zm1.0135 1.8742-1.4312 1.6221c-.1898.2151-.4629.3383-.7499.3383h-3.3177l-1.8344 2.5898-3.2031 6.169 2.246 5.3194c.1109.2628.1044.5604-.018.8181l-2.2652 4.7689 1.3182 4.5037 4.9105 2.9943c.0222.0135.0438.0279.0649.0431l3.9619 2.8614 3.6562-3.1484v-3.5041c0-.2432.0886-.4781.2492-.6607l4.7759-5.4271-3.8423-1.9704c-.2798-.1434-.4757-.4101-.5292-.7199l-.6391-3.707c-.0501-.2906.0306-.5886.2206-.8141.19-.2256.4699-.3558.7649-.3558h4.8815l1.971-6.5354-3.5731-1.7866z" fill="#000" fill-rule="evenodd"/><path clip-rule="evenodd" d="m90.4401 47.7711c.3066.1794.4951.508.4951.8633v7.0718c0 .1434-.0309.2852-.0905.4157l-2.3693 5.1827v5.0093c0 .3787-.214.725-.5527.8944l-7.0718 3.5359c-.2797.1398-.6086.1408-.889.0027-.2805-.1381-.4802-.3994-.5399-.7063l-1.0761-5.5344c-.0364-.1869-.0186-.3803.0512-.5574l1.8919-4.8025-.8671-4.48c-.0449-.232-.0062-.4724.1092-.6786l2.1523-3.8434c.1553-.2773.4331-.4643.7485-.5037l4.7245-.5905 2.2885-1.2873c.3097-.1742.6885-.171.9952.0083zm-1.5049 2.5731-.9695.5453c-.1131.0637-.2375.1047-.3662.1207l-4.418.5523-1.7265 3.0831.8528 4.4064c.0361.1867.0183.3797-.0513.5566l-1.8918 4.802.7693 3.956 5.3414-2.6708v-4.6089c0-.1435.0309-.2853.0906-.4158l2.3692-5.1827z" fill="#000" fill-rule="evenodd"/><path d="m63.7411 101.7c-9.4265 0-17.0682 3.795-17.0682 8.476h34.1364c0-4.681-7.6417-8.476-17.0682-8.476z" fill="#fff"/><path clip-rule="evenodd" d="m46.6729 112.176c-1.1045 0-2-.895-2-2 0-3.513 2.8134-6.148 6.1096-7.785 3.4198-1.698 8.0041-2.6908 12.9586-2.6908s9.5388.9928 12.9586 2.6908c3.2962 1.637 6.1096 4.272 6.1096 7.785 0 1.105-.8955 2-2 2zm33.6585-4c-1.8101-3.716-8.5512-6.476-16.5903-6.476s-14.7802 2.76-16.5903 6.476c-.3123.641-.4779 1.311-.4779 2h34.1364c0-.689-.1656-1.359-.4779-2z" fill="#000" fill-rule="evenodd"/><path d="m41.9703 112.134c0-.529.4288-.958.9579-.958h42.2059c.5291 0 .9579.429.9579.958s-.4288.958-.9579.958h-42.2059c-.5291 0-.9579-.429-.9579-.958z" fill="#000"/><path clip-rule="evenodd" d="m85.1341 113.092c.5291 0 .9579-.429.9579-.958s-.4288-.958-.9579-.958h-42.2059c-.5291 0-.9579.429-.9579.958s.4288.958.9579.958zm-42.2059-3.916h42.2059c1.6337 0 2.9579 1.325 2.9579 2.958 0 1.634-1.3242 2.958-2.9579 2.958h-42.2059c-1.6336 0-2.9579-1.324-2.9579-2.958 0-1.633 1.3243-2.958 2.9579-2.958z" fill="#000" fill-rule="evenodd"/></svg>

<svg width="128" height="128" viewBox="0 0 128 128" fill="none" xmlns="http://www.w3.org/2000/svg">
<rect width="128" height="128" rx="10" fill="#EAB308"/>
<path fill-rule="evenodd" clip-rule="evenodd" d="M64.0312 88.4152C65.1357 88.4152 66.0312 89.3106 66.0312 90.4152V107.864C66.0312 108.969 65.1357 109.864 64.0312 109.864C62.9266 109.864 62.0312 108.969 62.0312 107.864V90.4152C62.0312 89.3106 62.9266 88.4152 64.0312 88.4152Z" fill="black"/>
<path fill-rule="evenodd" clip-rule="evenodd" d="M65.2711 16.1606C65.4061 17.2569 64.6268 18.255 63.5305 18.39C60.559 18.7559 57.5839 19.5133 54.6718 20.6921C36.7907 27.9302 28.1629 48.2933 35.401 66.1744C42.6391 84.0555 63.0022 92.6833 80.8833 85.4452C84.0763 84.1526 86.9714 82.4434 89.5332 80.4067C90.3978 79.7192 91.6559 79.8629 92.3433 80.7275C93.0308 81.5921 92.8871 82.8502 92.0225 83.5377C89.1638 85.8105 85.9363 87.715 82.3841 89.1529C62.4553 97.2199 39.7602 87.6041 31.6932 67.6752C23.6262 47.7464 33.2421 25.0514 53.1709 16.9843C56.4104 15.673 59.7259 14.8283 63.0416 14.42C64.1379 14.285 65.1361 15.0643 65.2711 16.1606Z" fill="black"/>
<path fill-rule="evenodd" clip-rule="evenodd" d="M50.9752 15.3624C51.9606 14.8633 53.164 15.2575 53.6631 16.2428L89.4134 86.8209C89.9125 87.8063 89.5183 89.0097 88.533 89.5088C87.5476 90.008 86.3442 89.6138 85.8451 88.6284L50.0948 18.0503C49.5957 17.065 49.9899 15.8615 50.9752 15.3624Z" fill="black"/>
<path d="M97.1608 53.8614C97.1608 70.1632 83.9455 83.3785 67.6437 83.3785C51.3418 83.3785 38.1265 70.1632 38.1265 53.8614C38.1265 37.5595 51.3418 24.3443 67.6437 24.3443C83.9455 24.3443 97.1608 37.5595 97.1608 53.8614Z" fill="white"/>
<path fill-rule="evenodd" clip-rule="evenodd" d="M99.1608 53.8614C99.1608 71.2678 85.0501 85.3785 67.6437 85.3785C50.2372 85.3785 36.1265 71.2678 36.1265 53.8614C36.1265 36.455 50.2372 22.3443 67.6437 22.3443C85.0501 22.3443 99.1608 36.455 99.1608 53.8614ZM67.6437 83.3785C83.9455 83.3785 97.1608 70.1632 97.1608 53.8614C97.1608 37.5595 83.9455 24.3443 67.6437 24.3443C51.3418 24.3443 38.1265 37.5595 38.1265 53.8614C38.1265 70.1632 51.3418 83.3785 67.6437 83.3785Z" fill="black"/>
<path fill-rule="evenodd" clip-rule="evenodd" d="M58.2849 35.943C58.5742 35.6151 59.0429 35.5132 59.4422 35.6913L67.751 39.3984C67.7644 39.4043 67.7777 39.4106 67.7908 39.4172L72.1369 41.5902C72.5723 41.8079 72.7877 42.3074 72.6471 42.7734L70.2184 50.8265C70.091 51.2488 69.7021 51.5378 69.261 51.5378H64.8237L65.1763 53.5828L69.7173 55.9115C69.9917 56.0523 70.1859 56.3118 70.2434 56.6148C70.301 56.9178 70.2155 57.2304 70.0117 57.462L64.6366 63.5701V67.1554C64.6366 67.4465 64.5097 67.7232 64.2891 67.9132L59.6873 71.8758C59.3366 72.1778 58.8245 72.1997 58.4493 71.9288L53.8791 68.6281L48.6714 65.4527C48.4588 65.323 48.3022 65.1187 48.2323 64.8798L46.6984 59.6388C46.6294 59.4033 46.6495 59.1506 46.7548 58.9289L48.9912 54.2207L46.7368 48.8815C46.6211 48.6074 46.6335 48.2959 46.7706 48.0317L50.2219 41.3847C50.2431 41.344 50.2669 41.3049 50.2934 41.2675L52.4665 38.1996C52.654 37.935 52.9582 37.7776 53.2825 37.7776H56.6661L58.2849 35.943ZM59.2984 37.8172L57.8672 39.4393C57.6774 39.6544 57.4043 39.7776 57.1173 39.7776H53.7996L51.9652 42.3674L48.7621 48.5364L51.0081 53.8558C51.119 54.1186 51.1125 54.4162 50.9901 54.6739L48.7249 59.4428L50.0431 63.9465L54.9536 66.9408C54.9758 66.9543 54.9974 66.9687 55.0185 66.9839L58.9804 69.8453L62.6366 66.6969V63.1928C62.6366 62.9496 62.7252 62.7147 62.8858 62.5321L67.6617 57.105L63.8194 55.1346C63.5396 54.9912 63.3437 54.7245 63.2902 54.4147L62.6511 50.7077C62.601 50.4171 62.6817 50.1191 62.8717 49.8936C63.0617 49.668 63.3416 49.5378 63.6366 49.5378H68.5181L70.4891 43.0024L66.916 41.2158L59.2984 37.8172Z" fill="black"/>
<path fill-rule="evenodd" clip-rule="evenodd" d="M90.4401 47.7711C90.7467 47.9505 90.9352 48.2791 90.9352 48.6344V55.7062C90.9352 55.8496 90.9043 55.9914 90.8447 56.1219L88.4754 61.3046V66.3139C88.4754 66.6926 88.2614 67.0389 87.9227 67.2083L80.8509 70.7442C80.5712 70.884 80.2423 70.885 79.9619 70.7469C79.6814 70.6088 79.4817 70.3475 79.422 70.0406L78.3459 64.5062C78.3095 64.3193 78.3273 64.1259 78.3971 63.9488L80.289 59.1463L79.4219 54.6663C79.377 54.4343 79.4157 54.1939 79.5311 53.9877L81.6834 50.1443C81.8387 49.867 82.1165 49.68 82.4319 49.6406L87.1564 49.0501L89.4449 47.7628C89.7546 47.5886 90.1334 47.5918 90.4401 47.7711ZM88.9352 50.3442L87.9657 50.8895C87.8526 50.9532 87.7282 50.9942 87.5995 51.0102L83.1815 51.5625L81.455 54.6456L82.3078 59.052C82.3439 59.2387 82.3261 59.4317 82.2565 59.6086L80.3647 64.4106L81.134 68.3666L86.4754 65.6958V61.0869C86.4754 60.9434 86.5063 60.8016 86.566 60.6711L88.9352 55.4884V50.3442Z" fill="black"/>
<path d="M63.7411 101.7C54.3146 101.7 46.6729 105.495 46.6729 110.176H80.8093C80.8093 105.495 73.1676 101.7 63.7411 101.7Z" fill="white"/>
<path fill-rule="evenodd" clip-rule="evenodd" d="M46.6729 112.176C45.5684 112.176 44.6729 111.281 44.6729 110.176C44.6729 106.663 47.4863 104.028 50.7825 102.391C54.2023 100.693 58.7866 99.7002 63.7411 99.7002C68.6956 99.7002 73.2799 100.693 76.6997 102.391C79.9959 104.028 82.8093 106.663 82.8093 110.176C82.8093 111.281 81.9138 112.176 80.8093 112.176H46.6729ZM80.3314 108.176C78.5213 104.46 71.7802 101.7 63.7411 101.7C55.702 101.7 48.9609 104.46 47.1508 108.176C46.8385 108.817 46.6729 109.487 46.6729 110.176H80.8093C80.8093 109.487 80.6437 108.817 80.3314 108.176Z" fill="black"/>
<path d="M41.9703 112.134C41.9703 111.605 42.3991 111.176 42.9282 111.176H85.1341C85.6632 111.176 86.092 111.605 86.092 112.134C86.092 112.663 85.6632 113.092 85.1341 113.092H42.9282C42.3991 113.092 41.9703 112.663 41.9703 112.134Z" fill="black"/>
<path fill-rule="evenodd" clip-rule="evenodd" d="M85.1341 113.092C85.6632 113.092 86.092 112.663 86.092 112.134C86.092 111.605 85.6632 111.176 85.1341 111.176H42.9282C42.3991 111.176 41.9703 111.605 41.9703 112.134C41.9703 112.663 42.3991 113.092 42.9282 113.092H85.1341ZM42.9282 109.176H85.1341C86.7678 109.176 88.092 110.501 88.092 112.134C88.092 113.768 86.7678 115.092 85.1341 115.092H42.9282C41.2946 115.092 39.9703 113.768 39.9703 112.134C39.9703 110.501 41.2946 109.176 42.9282 109.176Z" fill="black"/>
</svg>
